X: 119
T: Old Grey Goose
B: canberra pickers and fiddlers
B: old time tunes update
B: tunes
M:6/8
L:1/8
Q: 3/8=100
K:Edorian
V:1 
F|GBG FAF|GEE E2F|DFA dAG|FDD DEF|!
GFG AGA|BAB gfg|edB BAF|GEE E2:|!
F|G2G dBG|GBd dBG|A2A ecA|Ace ecA|!
G2G dBG|GBd gfg|edB BAF|GEE E2:|!
d|efe edB|def gfg|fdd add|fag fef|!
g3 f3|def gfg|edB BAF|GEE E2:|!
c|BGG AFF|GEE E2c|BGG dAG|FDD D2c|!
BGG AFF|GEE gfg|edB BAF|GEE E2:|!
f|gbg faf|gee e2f|gbg fag|fdd def|!
gbg faf|egf gfg|edB BAF|GEE E2:|!
f|gdc BcA|GEE E2f|gdB dAG|FDD DEF|!
G3 AGA|BAB gfg|edB BAF|GEE E2:|!
% abcbook-tune_id 67a7d9ecfa045b3afb430274
% abcbook-tune_composer_id 
% abcbook-link-0 https://www.youtube.com/watch?v=Ce3atewGzUE
% abcbook-link-title-0 The Old Grey Goose
% abcbook-boost 0
% abcbook-difficulty 0
% abcbook-tags old time tunes
% abcbook-tablature 
% abcbook-transpose -2
% abcbook-tuning GDAE
% abcbook-lastupdated 1739273396478
% abcbook-src-url 
% abcbook-soundfonts 
% abcbook-repeats 1
%%MIDI transpose -2
% Titles One title
% Transcriptions Only 1 transcription
% Movement Has some stepwise movement
% Mode major
% Key D
% Time_signature 6/8
% Has_accompaniment_chords No chords

